ОкеанВКонцеДороги/svg/ch1/balloon5.svg

<svg xmlns="http://www.w3.org/2000/svg" width="322" height="921" fill="none" viewBox="0 0 322 921"><path fill="#d8e0ff" d="M129.829 262.331c-4.914 32.671-8.091 88.54-1.608 149.802 6.483 61.274 22.615 127.802 56.208 181.902 21.284 34.275 27.919 66.172 26.203 95.51-1.715 29.303-11.756 55.952-23.662 79.763-5.953 11.907-12.384 23.126-18.483 33.614-6.109 10.507-11.869 20.253-16.531 29.288-4.665 9.039-8.173 17.26-9.821 24.693-1.644 7.415-1.413 13.934 1.265 19.673 9.173 19.654 17.642 26.573 24.044 27.869 6.258 1.267 11.353-2.734 14.199-7.219l2.778 1.763c-3.186 5.019-9.441 10.338-17.63 8.681-8.046-1.629-17.122-9.881-26.372-29.702-3.079-6.598-3.241-13.907-1.497-21.776 1.74-7.849 5.403-16.368 10.11-25.491 4.71-9.128 10.525-18.966 16.611-29.432 6.096-10.483 12.481-21.625 18.385-33.431 11.807-23.616 21.641-49.809 23.319-78.486 1.676-28.644-4.778-59.87-25.713-93.583-33.955-54.682-50.174-121.755-56.685-183.289-6.512-61.546-3.328-117.695 1.627-150.637z"/><path fill="#d7eeff" d="m117.802 261.041-9.69 16.337c8.356-.6 25.157-.588 25.504 4.253s12.247-2.906 18.153-7.385l-19.703-14.228c30.564-16.096 81.714-54.091 73.031-175.12-5.339-74.41-147.96-106.26-166.543 4.127-20.32 120.704 53.154 161.578 79.248 172.016"/></svg>

<svg width="322" height="921" viewBox="0 0 322 921" fill="none" xmlns="http://www.w3.org/2000/svg">
<path d="M129.829 262.331C124.915 295.002 121.738 350.871 128.221 412.133C134.704 473.407 150.836 539.935 184.429 594.035C205.713 628.31 212.348 660.207 210.632 689.545C208.917 718.848 198.876 745.497 186.97 769.308C181.017 781.215 174.586 792.434 168.487 802.922C162.378 813.429 156.618 823.175 151.956 832.21C147.291 841.249 143.783 849.47 142.135 856.903C140.491 864.318 140.722 870.837 143.4 876.576C152.573 896.23 161.042 903.149 167.444 904.445C173.702 905.712 178.797 901.711 181.643 897.226L184.421 898.989C181.235 904.008 174.98 909.327 166.791 907.67C158.745 906.041 149.669 897.789 140.419 877.968C137.34 871.37 137.178 864.061 138.922 856.192C140.662 848.343 144.325 839.824 149.032 830.701C153.742 821.573 159.557 811.735 165.643 801.269C171.739 790.786 178.124 779.644 184.028 767.838C195.835 744.222 205.669 718.029 207.347 689.352C209.023 660.708 202.569 629.482 181.634 595.769C147.679 541.087 131.46 474.014 124.949 412.48C118.437 350.934 121.621 294.785 126.576 261.843L129.829 262.331Z" fill="#D8E0FF"/>
<path d="M117.802 261.041L108.112 277.378C116.468 276.778 133.269 276.79 133.616 281.631C133.964 286.472 145.863 278.725 151.769 274.246L132.066 260.018C162.63 243.922 213.78 205.927 205.097 84.8973C199.758 10.4883 57.1369 -21.3627 38.5535 89.0255C18.2336 209.729 91.7081 250.603 117.802 261.041Z" fill="#D7EEFF"/>
</svg>
